X:1
T:Eileen Oge, the Pride of Petravore
T:Eileen Oge, the Pride of Petravore
T:William Percy French (1854-1920)
C:William Percy French (1854-1920)
L:1/8
M:2/2
K:Emin
V:1 treble 
V:1
 B,2 | EDEF GFGA | BcBA G2 E2 | D2 DE FEFG | ABAG FEDF | EDEF GFGA | BcBA G2 GA | B2 Bc BAFG | %8
 E2 ED E2 :: z2 | [ce]2 [ce]2 [ce]3 e | dBGA B3 c | BAFE FGAB | AGED E2 (3FGA | Bdef g2 ge | %15
 dBGA B3 A | B2 Bc BAFG | E2 ED E2 :| %18

